X:769
T:Ferry Banks, The
O:ireland
R:Reel
M:4/4
K:DDor
D2AD EDAD | CE2D CEGE | D2AD EDAD |CDEG cGEC |\
D2AD EDAD | CE2D CEGE |
F3D E3D |1 CDEG cGEC:|2\
CDEG cGED |: \
K:D
d3e f2ed | cdef g2fe |
dcde f2ed | =cAGE EDD2 |\
d3e f2ed | cdef g3e | =f2fd efed| =cAGE EDD2:|**
